X:1
T:Title
%%score 1 2 3 4
L:1/8
M:2/2
K:C
V:1 treble nm="Part_1"
V:2 treble-8 nm="Part_2"
V:3 treble-8 nm="Part_3"
V:4 bass nm="Part_4"
V:1
 A8 | A8 | G4 E4 | F8 | E4 F4 | G4 A4- | A4 G4 | A8 | z8 | A8- | A8 | G8 | _B4 A4- | A4 G4 | F8 | %15
 E4 A4- | A2 G2 F4 | E8 | D8 | z8 | F8 | G8 | D8 | F8 | E4 D4- | D2 C2 C4- | C4 B,4 | C8 | z4 E4- | %29
 E4 F4- | F4 E4 | G8 | F4 A4- | A4 D4- | D4 C4 | F4 E4- | E2 D2 D4- | D4 ^C4 | D8 || A8- | A8 | %41
 G8 | F8- | F4 D4 | E8 | D8 | z8 | F8 | G8 | D8 | C8 | G8 | F4 A4- | A4 F4 | G8 | E4 C4 | %56
 F4 G2 F2 | E2 D2 D4- | D4 C4 | D8 || F8 | (3:2:2A8 B4 | c8 | B8 | z4 c4- | c4 A4 | d4 c4 | %67
 A4 _B4- | B4 A4- | A4 G4 | F8 | G4 E4 | D8 | z4 D4- | D4 G4- | G4 ^F4 | G8 | A8- | A8 | G8 | %80
 z4 c4- | c4 B4 | A4 d4- | d4 ^c4 | d4 B4 | A8- | A4 G4 | A4 F4 | E8 | D8 || E8- | E8 | F8 | A8- | %94
 A8 | E8 | z4 A4- | A4 ^G4 | A8 | A4 A4 | c8 | G8- | G8 | E8 | F8 | G8 | A8- | A4 G4 | F4 E4- | %109
 E2 D2 D4- | D4 C4 | D8 | z8 | E4 F4 | G8 | F8 | E4 D4- | D4 C4 | F4 G4 | A4 B4- | B4 A4- | %121
 A2 G2 G2 F2 | A8- | A8 | z8 | A8 | F8 | D8 | G8- | G4 E4 | F4 G4 | A8 | G6 F2 | E2 D2 D4- | %134
 D2 C2 C2 B,2 | D8 |] %136
V:2
 c8 | F8 | G8 | A4 B4 | c4 d4 | B4 A4 | z8 | c8 | c8 | F8- | F8 | G8 | F8 | z8 | A4 d4 | c4 A4- | %16
 A4 A4 | z4 A4 | A8- | A8 | d8 | B8 | B8 | A6 B2 | c4 A4- | A4 G4- | G4 F4 | G8 | z4 c4 | B4 d4- | %30
 d4 B4 | e8 | c8 | d8 | A8 | c8 | A8- | A4 G4 | A8 || e8- | e8 | e8 | d8- | d8 | A8- | A8 | B8 | %47
 A8 | E8 | D8 | z8 | G8 | A8- | A8 | B8 | G4 c4 | d4 B4 | c4 A4- | A2 G2 G2 F2 | A8 || c8 | c8- | %62
 c8 | d8 | c8 | f8 | f4 c4- | c4 d4- | d4 A4 | c8 | d8 | c4 B4- | B4 G4 | B4 A4 | G4 z4 | D8 | d8 | %77
 c8 | A8 | B4 c4 | d4 e4- | e8 | f8 | e8 | d8- | d4 c4 | d4 B4 | A4 d4- | d4 ^c4 | d8 || c8 | A8 | %92
 G8 | F8 | c8- | c8 | e8 | z8 | e8 | d8 | c8 | e8- | e8 | c8 | d8 | e8 | c4 A4- | A4 B4 | c8- | %109
 c4 A4- | A4 G4 | A8- | A4 B4 | c8 | B4 c4 | d8 | c8 | z4 c4- | c4 B4 | A4 G4 | z4 e4- | e4 d4 | %122
 e8 | e8 | d8 | A8 | d8- | d8 | B4 e4- | e4 c4 | d4 e4- | e4 A4 | B4 c4- | c2 A2 A4- | A4 G4 | %135
 A8 |] %136
V:3
 A8 | c8- | c8 | d8 | A8 | G4 c4 | B8 | A8- | A8 | c8- | c8 | B8 | z4 A4 | c8 | d4 A4- | %15
 A2 B2 c4- | c4 d4- | d4 c4 | d8- | d8 | A8 | E4 F4 | G8 | D8 | C4 F4- | F4 E4 | D8 | C8- | C8 | %29
 G4 A4 | F4 G4- | G4 E4 | F8 | D8 | F4 E4 | D4 A4 | G4 F4 | E8 | D8 || z8 | z8 | z8 | A8- | A8 | %44
 c8 | d8- | d8 | d8 | e8 | A8- | A8 | B6 c2 | d8 | c4 d4 | e4 d4 | B4 A4- | A4 G4 | A4 F4 | E8 | %59
 D8 || F8- | F8 | A8 | G8 | A8- | A8 | F8 | z4 G4- | G4 F4 | E8 | D8 | z4 G4- | G4 G4- | G4 ^F4 | %74
 G8 | A8 | G8 | F8- | F8 | E8 | D4 A4- | A4 G4 | F4 D4 | A8 | D8 | z8 | F4 G4 | D8 | A8 | D8 || %90
 A8 | c8 | d8 | A8- | A8 | A8 | c8 | B8 | A8 | A4 A4 | A8 | c8- | c8 | G8 | F8 | E8 | F8- | F4 G4 | %108
 A4 G4- | G4 F4 | E8 | D8- | D8 | C8 | E8 | D8 | G8 | F4 A4- | A4 B4 | c4 d4- | d4 c4 | B8 | A8- | %123
 A8 | A8 | F8 | D8 | G8- | G8 | E8 | D4 C4- | C4 F4 | E4 A4- | A4 F4 | E8 | D8 |] %136
V:4
 F,8 | A,8 | E,8 | D,8 | z4 D,4 | E,4 A,,4 | E,8 | A,,8- | A,,8 | A,8- | A,8 | E,8 | D,4 F,4- | %13
 F,4 E,4 | D,8 | z4 F,4- | F,4 D,4 | A,8 | D,8- | D,8 | D,8 | z8 | z8 | z8 | z8 | z8 | z8 | E,8 | %28
 G,8 | E,4 D,4- | D,4 E,4- | E,4 G,4 | A,8 | F,8 | D,4 A,,4 | z4 A,,4 | C,4 D,4 | A,,4 z4 | %38
 [D,F,]8 || A,,8- | A,,8 | C,8 | D,8- | D,8 | z8 | F,8 | G,8 | D,8 | C,8 | F,8- | F,8 | E,8 | D,8 | %53
 F,8 | E,4 G,4- | G,4 F,4 | D,4 E,4 | A,,4 D,4 | A,,4 z4 | [D,F,]8 || z8 | z8 | z8 | z8 | z8 | z8 | %66
 z8 | z8 | z8 | z8 | z8 | z8 | z8 | z8 | z8 | z8 | z8 | z8 | z8 | z8 | z8 | z8 | z8 | z8 | z8 | %85
 z8 | z8 | z8 | z8 | z8 || A,,8- | A,,8 | _B,,8 | A,,8- | A,,8 | A,,8 | A,,8 | E,8 | A,,8 | D,8 | %100
 z8 | C,8- | C,8 | E,8 | D,8 | C,8 | A,,4 D,4- | D,4 B,,4 | A,,4 C,4- | C,4 D,4 | A,,8 | D,8 | z8 | %113
 G,8 | G,8 | A,8 | E,4 z4 | D,4 A,,4- | A,,4 E,4 | A,,4 z4 | B,,4 C,4 | E,4 z4 | A,,8- | A,,8 | %124
 D,8 | D,8 | A,8 | B,8 | z4 G,4- | G,4 G,4 | F,4 E,4- | E,4 D,4 | z4 A,,4- | A,,4 D,4 | A,,4 z4 | %135
 [D,F,]8 |] %136

